Catalina-light/actions/22/zoom-original.svg

<svg xmlns="http://www.w3.org/2000/svg" viewBox="0 0 22 22">
  <defs id="defs3051">
    <style type="text/css" id="current-color-scheme">
      .ColorScheme-Text {
        color:#4d4d4d
      }
      </style>
  </defs>
    <path
       style="fill:currentColor;fill-opacity:1;stroke:none"
       class="ColorScheme-Text"
       d="M 6.625 3 L 3.3730469 3.0097656 C 3.2696969 3.0100956 3.176875 3.0532937 3.109375 3.1210938 C 3.041785 3.1888637 2.9997 3.2816256 3 3.3847656 L 3.0097656 6.6269531 C 3.0104256 6.8332531 3.1799688 7.0007 3.3867188 7 C 3.5934487 6.99934 3.7603856 6.83125 3.7597656 6.625 L 3.75 3.7558594 L 6.6269531 3.7460938 C 6.8336531 3.7454436 7.00065 3.5792669 7 3.3730469 C 6.99943 3.1667569 6.83186 2.99929 6.625 3 z M 15.375 3 C 15.16814 2.99929 15.00056 3.1667569 15 3.3730469 C 14.99935 3.5792669 15.166337 3.7454437 15.373047 3.7460938 L 18.25 3.7558594 L 18.240234 6.625 C 18.239624 6.83125 18.406561 6.99934 18.613281 7 C 18.820041 7.0007 18.989574 6.8332531 18.990234 6.6269531 L 19 3.3847656 C 19.0003 3.2816256 18.958215 3.1888637 18.890625 3.1210938 C 18.823125 3.0532937 18.730303 3.0100956 18.626953 3.0097656 L 15.375 3 z M 6.5 6 C 6.22879 6 6 6.22879 6 6.5 L 6 15.5 C 6 15.77122 6.22879 16 6.5 16 L 15.5 16 C 15.77122 16 16 15.77122 16 15.5 L 16 6.5 C 16 6.22879 15.77122 6 15.5 6 L 6.5 6 z M 3.3867188 15 C 3.1799688 14.9993 3.0104256 15.166757 3.0097656 15.373047 L 3 18.615234 C 2.9997 18.718364 3.041785 18.811126 3.109375 18.878906 C 3.176875 18.946706 3.2696969 18.989904 3.3730469 18.990234 L 6.625 19 C 6.83186 19.00071 6.99943 18.833253 7 18.626953 C 7.00065 18.420743 6.8336531 18.254556 6.6269531 18.253906 L 3.75 18.244141 L 3.7597656 15.375 C 3.7603856 15.16876 3.5934487 15.00067 3.3867188 15 z M 18.613281 15 C 18.406561 15.00067 18.239624 15.16876 18.240234 15.375 L 18.25 18.244141 L 15.373047 18.253906 C 15.166337 18.254556 14.99935 18.420743 15 18.626953 C 15.00056 18.833253 15.16814 19.00071 15.375 19 L 18.626953 18.990234 C 18.730303 18.989904 18.823125 18.946706 18.890625 18.878906 C 18.958215 18.811126 19.0003 18.718364 19 18.615234 L 18.990234 15.373047 C 18.989574 15.166757 18.820041 14.9993 18.613281 15 z "
        />
</svg>

<svg viewBox="0 0 22 22" xmlns="http://www.w3.org/2000/svg">
<defs>
<style id="current-color-scheme" type="text/css">.ColorScheme-Text {
        color:#4d4d4d
      }</style>
</defs>
<path class="ColorScheme-Text" d="m6.625 3-3.252 0.0097656c-0.10335 3.3e-4 -0.19617 0.043528-0.26367 0.11133-0.06759 0.06777-0.10968 0.16053-0.10938 0.26367l0.0097656 3.2422c6.6e-4 0.2063 0.1702 0.37375 0.37695 0.37305 0.20673-6.6e-4 0.37367-0.16875 0.37305-0.375l-0.0097656-2.8691 2.877-0.0097656c0.2067-6.502e-4 0.3737-0.16683 0.37305-0.37305-5.7e-4 -0.20629-0.16814-0.37376-0.375-0.37305zm8.75 0c-0.20686-7.1e-4 -0.37444 0.16676-0.375 0.37305-6.5e-4 0.20622 0.16634 0.3724 0.37305 0.37305l2.877 0.0097656-0.009766 2.8691c-6.1e-4 0.20625 0.16633 0.37434 0.37305 0.375 0.20676 7e-4 0.37629-0.16675 0.37695-0.37305l0.009766-3.2422c3e-4 -0.10314-0.041785-0.1959-0.10938-0.26367-0.0675-0.0678-0.16032-0.111-0.26367-0.11133l-3.252-0.0097656zm-8.875 3c-0.27121 0-0.5 0.22879-0.5 0.5v9c0 0.27122 0.22879 0.5 0.5 0.5h9c0.27122 0 0.5-0.22878 0.5-0.5v-9c0-0.27121-0.22878-0.5-0.5-0.5h-9zm-3.1133 9c-0.20675-7e-4 -0.37629 0.16676-0.37695 0.37305l-0.0097656 3.2422c-3e-4 0.10313 0.041785 0.19589 0.10938 0.26367 0.0675 0.0678 0.16032 0.111 0.26367 0.11133l3.252 0.009766c0.20686 7.1e-4 0.37443-0.16675 0.375-0.37305 6.5e-4 -0.20621-0.16635-0.3724-0.37305-0.37305l-2.877-0.009765 0.0097656-2.8691c6.2e-4 -0.20624-0.16632-0.37433-0.37305-0.375zm15.227 0c-0.20672 6.7e-4 -0.37366 0.16876-0.37305 0.375l0.009766 2.8691-2.877 0.009765c-0.20671 6.5e-4 -0.3737 0.16684-0.37305 0.37305 5.6e-4 0.2063 0.16814 0.37376 0.375 0.37305l3.252-0.009766c0.10335-3.3e-4 0.19617-0.043528 0.26367-0.11133 0.06759-0.06778 0.10968-0.16054 0.10938-0.26367l-0.009766-3.2422c-6.6e-4 -0.20629-0.17019-0.37375-0.37695-0.37305z" fill="currentColor"/>
</svg>
